icons/file-damage-fill.svg

<svg xmlns="http://www.w3.org/2000/svg" width="24" height="24" fill="none"><g clip-path="url(#a)"><g><path fill="#121212" d="M3 14L7 16.5L10 13L13 17L15 14.5L18 15L15 12L13 14.5L10 9.5L6.5 13.25L3 10V2.992C3 2.455 3.447 2 3.998 2H14V8C14 8.26522 14.1054 8.51957 14.2929 8.70711C14.4804 8.89464 14.7348 9 15 9H21V20.993C21.0009 21.1243 20.976 21.2545 20.9266 21.3762C20.8772 21.4979 20.8043 21.6087 20.7121 21.7022C20.6199 21.7957 20.5101 21.8701 20.3892 21.9212C20.2682 21.9723 20.1383 21.9991 20.007 22H3.993C3.72981 22 3.47739 21.8955 3.2912 21.7095C3.105 21.5235 3.00027 21.2712 3 21.008V14ZM21 7H16V2.003L21 7Z"/></g></g><defs><clipPath id="a"><rect width="24" height="24" fill="white"/></clipPath></defs></svg>

<svg width="24" height="24" fill="none" xmlns="http://www.w3.org/2000/svg"><g clip-path="url(#a)"><path d="m3 14 4 2.5 3-3.5 3 4 2-2.5 3 .5-3-3-2 2.5-3-5-3.5 3.75L3 10V2.992C3 2.455 3.447 2 3.998 2H14v6a1 1 0 0 0 1 1h6v11.993A1 1 0 0 1 20.007 22H3.993A.993.993 0 0 1 3 21.008V14Zm18-7h-5V2.003L21 7Z" /></g><defs><clipPath id="a"><path fill="#fff" d="M0 0h24v24H0z"/></clipPath></defs></svg>
